!!!COM: Bach, Johann Sebastian
!!!OPR: Inventio
!!!OTL: Inventio 9
!!!XEN: Two-part Inventions [for keyboard]
!!!ONM: No. 9
!!!ONB: In F minor.
!!!SCT: BWV 780
!!!YEC: Copyright 1994, David Huron
!!!YEM: Rights to all derivative electronic formats reserved.
!! Performance duration: 1:47; performance tempo: 57.2 quarter-notes per minute.
!! (Andras Schiff, piano, "Two-Part Inventions BWV 772a-786; Three-part
!! Inventions BWV 787-801" Decca 411 974-2)
**kern	**kern
*staff2	*staff1
*clefF4	*clefG2
*k[b-e-a-d-]	*k[b-e-a-d-]
*f:	*f:
*M3/4	*M3/4
*MM57.2	*MM57.2
=1-	=1-
8FF	{16cc
.	16b-
[8F	16a-
.	16g}
16F]	8a-
{16G	.
16A-	8f
16G	.
16F	[4dd-
16E-	.
16D-	.
16C}	.
=2	=2
8BB-	16dd-]
.	{16cc
[8G	16b-
.	16an}
16G]	8b-
{16A-	.
16B-	8g
16A-	.
16G	[4een
16F	.
16En	.
16Dn}	.
=3	=3
{16C	16ee]
16Dn	{16ff
16En	16gg
16F	16aa-}
16G	{8bb-
16A-	.
16B-	16gg
16G	16een}
16F	{8dd-
16E	.
16F	8cc}
16E}	.
=4	=4
4F	{16b-
.	16a-
.	16g
.	16a-
16r	16b-
16C	16dd-
16Dn	16cc
16En	16b-
16F	16a-
16G	16g
16A-	16f
16B-	16en}
=5	=5
16c	8a-
16B-	.
16A-	[8ff
16G	.
8A-	16ff]
.	{16gg
8F	16aa-
.	16gg
[4d-	16ff
.	16ee-
.	16dd-
.	16cc}
=6	=6
16d-]	8b-
16c	.
16B-	[8gg
16An	.
8B-	16gg]
.	{16aa-
8G	16bb-
.	16aa-
[4en	16gg
.	16ff
.	16een
.	16ddn}
=7	=7
16e]	{16cc
16f	16ddn
16g	16een
16a-	16ff
8b-	16gg
.	16aa-
16g	16bb-
16en	16gg
8d-	16ff
.	16ee
8c	16ff
.	16ee}
=8	=8
{16B-	8ff
16A-	.
16G	[8cc
16A-}	.
{16B-	16cc]
16d-	16b-
16c	16a-
16B-	16g
16A-	{16f
16G	16en}
16F	{16a-
16En}	16g}
=9	=9
8A-	16cc
.	16b-
[8F	16a-
.	16g
16F]	8a-
{16G	.
16A-	8f
16G	.
16F	[4aa-
16E-	.
16Dn	.
16C}	.
=10	=10
8BBn	16aa-]
.	{16gg
[8A-	16ff
.	16een}
16A-]	8ff
{16G	.
16F	8ddn
16E-}	.
{16Dn	[4bn
16C	.
16BB	.
16AAn}	.
=11	=11
16GG	16b]
16AAn	16cc
16BBn	16ddn
16C	16ee-
16Dn	8ff
16E-	.
16F	16dd
16D	16bn
16C	8a-
16BB	.
16C	[8g
16BB	.
=12	=12
8E-	16g]
.	{16f
[8c	16e-
.	16dn}
16c]	8e-
{16dn	.
16e-	8c
16d	.
16c	[4ee-
16B-	.
16An	.
16G}	.
=13	=13
8F#	16ee-]
.	{16ddn
[8e-	16cc
.	16bn}
16e-]	8cc
{16dn	.
16c	8an
16B-	.
16An	[4ff#
16G	.
16F#	.
16En}	.
=14	=14
{16Dn	16ff#]
16En	{16gg
16F#	16aan
16G	16bb-}
16An	{8ccc
16B-	.
16c	16aa
16A	16ff#}
16G	{8ee-
16F#	.
16G	8ddn}
16F#}	.
=15	=15
16G	4.bnO
16An	.
16Bn	.
16c	.
16dn	.
16e-	.
16f	8b
16d	.
16e-	[4ccW
16c	.
16d	.
16e-	.
=16	=16
16f	8.ccS]
16g	.
16a-	.
16f	16ddn
16g	4.ddO
16dn	.
16e-	.
16f	.
16G	.
16f	.
16e-	8cc
16d	.
=17	=17
16e-	[4cc
{16F	.
16E-	.
16Dn}	.
8E-	16cc]
.	{16ddn
8C	16ee-
.	16dd
[4A-	16cc
.	16b-
.	16a-
.	16g}
=18	=18
16A-]	8f
{16G	.
16F	[8ddn
16En}	.
8F	16dd]
.	{16ee-
8Dn	16ff
.	16ee-
[4Bn	16dd
.	16cc
.	16bn
.	16an}
=19	=19
16B]	{16g
16c	16an
16dn	16bn
16e-	16cc
8f	16ddn
.	16ee-
16d	16ff
16Bn	16dd
8A-	16cc
.	16b
8G	16cc
.	16b}
=20	=20
16F	[4gg
16E-	.
16Dn	.
16E-	.
16F	16gg]
16A-	16ff
16G	16ee-
16F	16ddn
16E-	[4cc
16D	.
16C	.
16BB-	.
=21	=21
8AAn	16cc]
.	16b-
[8c	16an
.	16g
16c]	8a-
16B-	.
16An	8f
16G	.
16F	[4ee-
16E-	.
16D-	.
16C	.
=22	=22
8BB-	16ee-]
.	16dd-
8D-	16cc
.	16dd-
8F	16ee-
.	16gg-
8An	16ff
.	16ee-
[4B-	16dd-
.	16cc
.	16b-
.	16a-
=23	=23
16B-]	8gn
16A-	.
16G	[8bb-
16F	.
8G	16bb-]
.	{16aa-
8E-	16gg
.	16ff
[4d-	16ee-
.	16dd-
.	16cc
.	16b-}
=24	=24
16d-]	8a-
16c	.
16B-	8cc
16c	.
16d-	8ee-
16f	.
16e-	8gg
16d-	.
16c	[4aa-
16B-	.
16A-	.
16G	.
=25	=25
8F	16aa-]
.	16gg
[8f	16ff
.	16ee-
16f]	16dd-
16e-	16b-
16d-	8aa-
16c	.
16B-	[4gg
16A-	.
16G	.
16B-	.
=26	=26
8E-	16gg]
.	16ff
[8e-	16ee-
.	16dd-
16e-]	16cc
16d-	16a-
16c	8gg-
16B-	.
16A-	[4ff
16G-	.
16F	.
16A-	.
=27	=27
8D-	16ff]
.	16ee-
[8d-	16dd-
.	16cc
16d-]	16b-
{16c	16a-
16B-	16g
16A-	16a-
16G	[4b-
16F	.
16En	.
16G}	.
=28	=28
[4C	16b-]
.	16a-
.	16g
.	16f
16C]	16en
16Dn	16f
16En	16g
16F	16a-
16G	16b-
16A-	16cc
16B-	16dd-
16G	16b-
=29	=29
16A-	16cc
16B-	16b-
[8c	16a-
.	16g
16c]	8a-
{16B-	.
16A-	8f
16G	.
16F	[4dd-
16E-	.
16D-	.
16C}	.
=30	=30
16BB-	16dd-]
16C	16cc
[8D-	16b-
.	16an
16D-]	8b-
16C	.
16BB-	8g
16AA-	.
16GG	[4een
16FF	.
16EEn	.
16DDn	.
=31	=31
16CC	16ee]
16DDn	16ff
16EEn	16gg
16FF	16aa-
16GG	8bb-
16AA-	.
16BB-	16gg
16GG	16een
16FF	8dd-
16EE	.
16FF	8cc
16EE	.
=32	=32
4FF	{16b-
.	16a-
.	16g
.	16a-
16r	16b-
16C	16dd-
16Dn	16cc
16En	16b-
16F	16a-
16E	16g
16F	16f
16G	16en}
=33	=33
16A-	8.ccWS
16G	.
16A-	.
16B-	16dd-
8c	4.gO
8B-	.
8c	.
8C	8f
=34	=34
2.FF;	2.f;
==|!	==|!
*-	*-
!!!CDT: 1685/3//-1750/7/28
!!!OCY: Deutschland
!!!AGN: polyphony
!!!AST: baroque
!!!AMT: simple triple
!!!SCA: Bach-Werke-Verzeichnis
!!!YOR: Bach Gesellschaft
!!!AIN: cemb; clavi
!!!EEV: 1.0
!!!RDT: 1986 November
!!!YER: 1995 May 22
!!!YEN: Canada
!!!EFL: 9/15
!!!EED: David Huron
